X: 155
T:The Heights of Dargai
M:9/8
L:1/8
Q:100
K:G
d|G>AB d3 B2 d|e>ce d3 B3|
g>fe d3 G>Bd|e>dB A3 A2 d|
G>AB d3 B2 d|e>ce d3 B3|
g>fe d3 A2 d|B>AB G3 G2 A|
G>Ad e3 e>ce|g>fe d3 B3|
g>fe d3 G>Bd|e>dB A3 A2 A|
G>Ad e3 e>ce|g>fe d3 B3|
g>fe d3 A2 d|B>AB G3 G2|]
